static/images/social/feed.svg

<?xml version="1.0" encoding="UTF-8"?>
<svg version="1.1" xmlns="http://www.w3.org/2000/svg" width="287" height="285">
<path d="M0 0 C11.60173479 11.9240052 18.29629339 26.28969211 23 42 C23.19577637 42.64710937 23.39155273 43.29421875 23.59326172 43.9609375 C29.68343292 64.81113061 30.46662462 87.40274177 31 109 C31.02191406 109.68368652 31.04382813 110.36737305 31.06640625 111.07177734 C32.17851504 147.89184586 31.1908903 197.2062883 5 226 C4.28457031 226.81855469 3.56914062 227.63710937 2.83203125 228.48046875 C-16.38391312 249.20108739 -48.84533724 256.38393177 -76 258 C-86.40607912 258.34318986 -96.81783976 258.33172944 -107.22851562 258.31567383 C-110.48223729 258.3110508 -113.73558443 258.31794255 -116.98925781 258.33618164 C-155.00765704 258.54738964 -198.56124422 257.69390551 -228 230 C-230.92477889 226.82727273 -233.51177531 223.52315001 -236 220 C-236.52078125 219.278125 -237.0415625 218.55625 -237.578125 217.8125 C-256.43555226 189.22861027 -256.21979043 149.87361081 -256.1875 117 C-256.18722809 115.95952515 -256.18695618 114.91905029 -256.18667603 113.8470459 C-256.1685939 98.81024375 -255.95303129 83.93104477 -254 69 C-253.89816406 68.17338867 -253.79632813 67.34677734 -253.69140625 66.49511719 C-250.6547411 42.47359625 -244.30757033 17.99988673 -226 1 C-225.37738281 0.39542969 -224.75476563 -0.20914062 -224.11328125 -0.83203125 C-178.68672719 -43.48568973 -45.65775285 -40.49580945 0 0 Z " fill="#F3B266" transform="translate(256,27)"/>
<path d="M0 0 C28.8904365 0.33636989 55.8685119 14.74158949 75.984375 34.76220703 C95.36284726 54.60300171 106.76982439 82.02010757 106.60546875 109.73046875 C106.4375 112.25 106.4375 112.25 105.4375 113.25 C103.87577255 113.33685603 102.31020656 113.35702219 100.74609375 113.34765625 C99.80185547 113.34443359 98.85761719 113.34121094 97.88476562 113.33789062 C96.89154297 113.32951172 95.89832031 113.32113281 94.875 113.3125 C93.87791016 113.30798828 92.88082031 113.30347656 91.85351562 113.29882812 C89.38145151 113.28700007 86.90950482 113.27051849 84.4375 113.25 C82.92758505 110.50985494 82.15030898 108.29406487 81.83203125 105.1875 C79.8263011 88.10469454 76.09533932 71.44988155 64.4375 58.25 C63.61378906 57.25742188 62.79007812 56.26484375 61.94140625 55.2421875 C46.45494464 37.02668306 24.54544137 26.96046626 0.94604492 24.93237305 C-4.36411098 24.44838902 -4.36411098 24.44838902 -6.5625 22.25 C-7.34851208 15.44233608 -6.55588732 8.00748661 -5.5625 1.25 C-3.94593043 -0.36656957 -2.23970501 0.04005434 0 0 Z " fill="#3A393B" transform="translate(93.5625,87.75)"/>
<path d="M0 0 C16.74531662 0.26622125 33.11424354 7.23050738 45.5 18.3125 C46.24765625 18.96734375 46.9953125 19.6221875 47.765625 20.296875 C59.72106887 31.43902337 66.28643637 46.03644279 69.375 61.875 C69.50753174 62.55409424 69.64006348 63.23318848 69.77661133 63.93286133 C70.36685187 67.30548309 70.78060724 70.07936196 69.5 73.3125 C67.19990227 75.61259773 61.65209334 74.49787365 58.5625 74.5 C57.62986328 74.51224609 56.69722656 74.52449219 55.73632812 74.53710938 C54.39924805 74.54000977 54.39924805 74.54000977 53.03515625 74.54296875 C52.214104 74.54707764 51.39305176 74.55118652 50.54711914 74.55541992 C48.5 74.3125 48.5 74.3125 46.5 72.3125 C45.95058372 70.12058792 45.48324548 67.90770496 45.0625 65.6875 C42.34098567 52.50893555 37.459221 41.2880054 26.29296875 33.02734375 C18.22480055 28.07360132 9.29274907 25.8036948 0.08203125 23.98828125 C-2.5 23.3125 -2.5 23.3125 -4.5 21.3125 C-4.74291992 19.26538086 -4.74291992 19.26538086 -4.73046875 16.77734375 C-4.72853516 15.88595703 -4.72660156 14.99457031 -4.72460938 14.07617188 C-4.71236328 13.14353516 -4.70011719 12.21089844 -4.6875 11.25 C-4.68685547 10.31349609 -4.68621094 9.37699219 -4.68554688 8.41210938 C-4.6334211 0.41369831 -4.6334211 0.41369831 0 0 Z " fill="#3B3A3B" transform="translate(91.5,126.6875)"/>
<path d="M0 0 C3.98444521 2.06600863 6.62808993 4.20899844 9 8 C9.89343272 12.52257029 10.02849442 17.06643049 7.828125 21.203125 C5.08779543 24.56497262 2.35723083 27.17005127 -2 28 C-6.13968258 28.05068999 -9.16372043 27.4941652 -12.75 25.375 C-16.53136485 21.38355933 -18.88230583 18.15772649 -19.1875 12.5625 C-17.56468045 7.69404136 -14.69656712 4.50021367 -11 1 C-7.52856436 -0.73571782 -3.79556182 -0.46645793 0 0 Z " fill="#3C3B3B" transform="translate(106,173)"/>
<path d="M0 0 C0 3 0 3 -2.40625 5.69921875 C-3.4299968 6.70302243 -4.4616054 7.69885649 -5.5 8.6875 C-6.02464844 9.19861328 -6.54929687 9.70972656 -7.08984375 10.23632812 C-8.38660904 11.49772708 -9.69246117 12.74977212 -11 14 C-11 9.82308582 -8.77013484 7.86318847 -6 5 C-4.05228995 3.24842937 -2.05675499 1.62627139 0 0 Z " fill="#D69F60" transform="translate(34,24)"/>
</svg>

<?xml version="1.0" encoding="UTF-8" standalone="no"?>
<svg
   version="1.1"
   width="287"
   height="285"
   id="svg2615"
   sodipodi:docname="feed.svg"
   inkscape:version="1.2.1 (9c6d41e410, 2022-07-14)"
   xmlns:inkscape="http://www.inkscape.org/namespaces/inkscape"
   xmlns:sodipodi="http://sodipodi.sourceforge.net/DTD/sodipodi-0.dtd"
   xmlns="http://www.w3.org/2000/svg"
   xmlns:svg="http://www.w3.org/2000/svg">
  <defs
     id="defs2619" />
  <sodipodi:namedview
     id="namedview2617"
     pagecolor="#ffffff"
     bordercolor="#000000"
     borderopacity="0.25"
     inkscape:showpageshadow="2"
     inkscape:pageopacity="0.0"
     inkscape:pagecheckerboard="0"
     inkscape:deskcolor="#d1d1d1"
     showgrid="false"
     inkscape:zoom="2.9087719"
     inkscape:cx="142.32811"
     inkscape:cy="142.67189"
     inkscape:window-width="1920"
     inkscape:window-height="1009"
     inkscape:window-x="-8"
     inkscape:window-y="-8"
     inkscape:window-maximized="1"
     inkscape:current-layer="svg2615" />
  <path
     d="M0 0 C11.60173479 11.9240052 18.29629339 26.28969211 23 42 C23.19577637 42.64710937 23.39155273 43.29421875 23.59326172 43.9609375 C29.68343292 64.81113061 30.46662462 87.40274177 31 109 C31.02191406 109.68368652 31.04382813 110.36737305 31.06640625 111.07177734 C32.17851504 147.89184586 31.1908903 197.2062883 5 226 C4.28457031 226.81855469 3.56914062 227.63710937 2.83203125 228.48046875 C-16.38391312 249.20108739 -48.84533724 256.38393177 -76 258 C-86.40607912 258.34318986 -96.81783976 258.33172944 -107.22851562 258.31567383 C-110.48223729 258.3110508 -113.73558443 258.31794255 -116.98925781 258.33618164 C-155.00765704 258.54738964 -198.56124422 257.69390551 -228 230 C-230.92477889 226.82727273 -233.51177531 223.52315001 -236 220 C-236.52078125 219.278125 -237.0415625 218.55625 -237.578125 217.8125 C-256.43555226 189.22861027 -256.21979043 149.87361081 -256.1875 117 C-256.18722809 115.95952515 -256.18695618 114.91905029 -256.18667603 113.8470459 C-256.1685939 98.81024375 -255.95303129 83.93104477 -254 69 C-253.89816406 68.17338867 -253.79632813 67.34677734 -253.69140625 66.49511719 C-250.6547411 42.47359625 -244.30757033 17.99988673 -226 1 C-225.37738281 0.39542969 -224.75476563 -0.20914062 -224.11328125 -0.83203125 C-178.68672719 -43.48568973 -45.65775285 -40.49580945 0 0 Z "
     fill="#F3B266"
     transform="translate(256,27)"
     id="path2605" />
  <g
     id="g3944"
     transform="matrix(1.4749313,0,0,1.4749313,-61.513594,-71.17581)">
    <path
       d="M 0,0 C 28.890436,0.33636989 55.868512,14.741589 75.984375,34.762207 95.362847,54.603002 106.76982,82.020108 106.60547,109.73047 106.4375,112.25 106.4375,112.25 105.4375,113.25 c -1.56173,0.0869 -3.12729,0.10702 -4.69141,0.0977 -0.944235,-0.003 -1.888473,-0.006 -2.861324,-0.01 -0.993223,-0.008 -1.986446,-0.0168 -3.009766,-0.0254 -0.99709,-0.005 -1.99418,-0.009 -3.021484,-0.0137 -2.472064,-0.0118 -4.944011,-0.0283 -7.416016,-0.0488 -1.509915,-2.74015 -2.287191,-4.95594 -2.605469,-8.0625 C 79.826301,88.104695 76.095339,71.449882 64.4375,58.25 63.613789,57.257422 62.790078,56.264844 61.941406,55.242187 46.454945,37.026683 24.545441,26.960466 0.94604492,24.932373 -4.364111,24.448389 -4.364111,24.448389 -6.5625,22.25 c -0.7860121,-6.807664 0.00661,-14.2425134 1,-21 C -3.9459304,-0.36656957 -2.239705,0.04005434 0,0 Z"
       fill="#3A393B"
       transform="translate(93.5625,87.75)"
       id="path2607"
       style="fill:#ffffff" />
    <path
       d="m 0,0 c 16.745317,0.26622125 33.114244,7.2305074 45.5,18.3125 0.747656,0.654844 1.495312,1.309687 2.265625,1.984375 C 59.721069,31.439023 66.286436,46.036443 69.375,61.875 c 0.132532,0.679094 0.265063,1.358188 0.401611,2.057861 0.590241,3.372622 1.003996,6.146501 -0.276611,9.379639 -2.300098,2.300098 -7.847907,1.185374 -10.9375,1.1875 -0.932637,0.01225 -1.865273,0.02449 -2.826172,0.03711 -1.33708,0.0029 -1.33708,0.0029 -2.701172,0.0059 -0.821052,0.0041 -1.642104,0.0082 -2.488037,0.01245 C 48.5,74.3125 48.5,74.3125 46.5,72.3125 45.950584,70.120588 45.483245,67.907705 45.0625,65.6875 42.340986,52.508936 37.459221,41.288005 26.292969,33.027344 18.224801,28.073601 9.2927491,25.803695 0.08203125,23.988281 -2.5,23.3125 -2.5,23.3125 -4.5,21.3125 c -0.2429199,-2.047119 -0.2429199,-2.047119 -0.2304687,-4.535156 0.00193,-0.891387 0.00387,-1.782774 0.00586,-2.701172 0.012246,-0.932637 0.024492,-1.865274 0.037109,-2.826172 6.445e-4,-0.936504 0.00129,-1.8730078 0.00195,-2.8378906 C -4.6334211,0.41369831 -4.6334211,0.41369831 0,0 Z"
       fill="#3B3A3B"
       transform="translate(91.5,126.6875)"
       id="path2609"
       style="fill:#ffffff" />
    <path
       d="M 0,0 C 3.9844452,2.0660086 6.6280899,4.2089984 9,8 9.8934327,12.52257 10.028494,17.06643 7.828125,21.203125 5.0877954,24.564973 2.3572308,27.170051 -2,28 -6.1396826,28.05069 -9.1637204,27.494165 -12.75,25.375 -16.531365,21.383559 -18.882306,18.157726 -19.1875,12.5625 -17.56468,7.6940414 -14.696567,4.5002137 -11,1 -7.5285644,-0.73571782 -3.7955618,-0.46645793 0,0 Z"
       fill="#3C3B3B"
       transform="translate(106,173)"
       id="path2611"
       style="fill:#ffffff" />
  </g>
</svg>
